X: 1957
T: Art O'Keeffe's
R: slide
M: 12/8
K: Adorian
B|:cBA BAG E2A A2B|d2B G2B dBA GAB|
c2A BAG E2A A2e|1 edB BAG E2A A2B:|2 edB BAG E2A A2G||
|:A2B c2d ede gfg|eaf g2e dBA G3|
A2B Bcd eaf g2e|1 edB BAG E2A A2G:|2 edB BAG E2A A2B||

